X: 36222
T: Scully Casey's
R: jig
M: 6/8
K: Adorian
c2A BAG|EAA EAA|cBc dcd|ega ged|
c2A BAG|EAA EAA|cBc dBG|BAA A2B:|
cBc dcd|ega ged|ega aga|aba ged|
cBc dcd|ega ged|c2e dBG|BAA A2B|
cBc dcd|ega ged|ega aga|aba ged|
eab c'ba|gea ged|c2e dBG|BAA A2B|

